X: 5823
T: Callaghan's
R: hornpipe
M: 4/4
K: Gmajor
|:Bd|efgf eABA|GABd dBGE|DEGA BABd|(3efg fg edBd|
~g2 fg edBd|geaf gfed|~B2 GB (3ABA FA|~G2 GF G2:|
|:fg|afge dega|bBBA G2 fg|afge dega|
beed e2 eg|(3faf df gfeg|1 (3faf (3def gfef|(3gab af gfed|
(3Bcd ed e2:|2 (3faf (3def gfed|~B2 GB (3ABA FA|~G2 GF G2||

